X: 21089
T: Kajsa
R: waltz
M: 3/4
K: Aminor
|:"Am" E4 AB|"C" c2 E2 c2|"G" B2 G3 d|"Am" e4 A2|"G7"B2 c2 d2|"Am" g2 c2 a2|"G" g2 f2 e2|"G" d6|
"Dm"f2 e2 d2|"A" ^c2 A2 G2|"Dm" F2 d3 c|"G"B4 G2|"C"c2 C2 D2|"G7"EF G2 D2|"C"E2 G2 "G7"B2|"C"c6:|
|:"Em"e2 B2 B2|"Em" e2 d2 e ^f|"G" g2 b2 a2|"G"g4 ^fe|"G" d2 G2 A2|"G" B2 c2 d2|"D" A4 D2|"D" ^F2 E2 D2|
"C"C2 E2 G2|"D"D2 ^FG A2|"G"B2 G2 B2|"C" c4 d2|"G"B2 g2 e2|"D" d2 c2 B2|"D" A2 D2 ^F2|"G" G6:|

